!!!!SEGMENT: pl-wtm--iii-42-033--004_kamienski-antoni--marie-valses-valse-no-4.krn
!!!cenid: 18xx:4357
!!!COM: Kamieński, Antoni
!!!COM-rismID: pe50045389
!!!CDT:
!!!CNT: Polish
!!!GTL: Marie-valses
!!!OTL: [Valse] No. 4
!!!OMV: 004
!!!PDT:
!!!AGN: Secular; Waltz
!!!SMS-siglum: PL-Wtm
!!!SMS-shelfmark: III.42.033
!!!SMS-shelfwork: 001-004 G
!!!SMS-variant:
!!!SMS-altvar:
!!!NIFC-rismSourceID: 1001136606
!!!NIFC-rismChildID: 1001136610
!!!NIFC-islandoraID: pl-wtm:23979
!!!URL-pdf-islandora: https://repozytorium.nifc.pl/islandora/object/pl-wtm:23979/datastream/PDF/view
!!!URL-scan: https://polish.musicsources.pl/pl/lokalizacje/galeria/druki-muzyczne/17856/4 @EN{Scan on Polish Music Sources Website} @PL{Skany w portalu Dziedzictwo Muzyki Polskiej w otwartym dostępie}
!!!ONB-nifc: UWAGA: skan 4.
!!!AIN: 2 piano
!!!key: A
!!!OMD: N.° 4
**kern	**kern	**dynam
*part2	*part1	*part1
*staff2	*staff1	*
*>[A,A,B,B1,B,B2]	*>[A,A,B,B1,B,B2]	*>[A,A,B,B1,B,B2]
*>A	*>A	*>A
*I"PIANO	*I"PIANO	*
*Ipiano	*Ipiano	*
*ICklav	*ICklav	*
*clefF4	*clefG2	*
*k[f#c#g#]	*k[f#c#g#]	*
*A:	*A:	*
*M3/4	*M3/4	*
=1	=1	=1
!	!LO:TX:b:i:rj:t=dolce	!
4AA/	2ccc#\	.
4c# 4A 4E\	.	.
4c# 4A 4E\	4ccc#^^\	.
=2	=2	=2
!	!LO:TUP:a:problem:klamra łukowa	!
4AA/	12ccc#\L	.
.	12ddd\	.
.	12ccc#\J	.
4e 4c# 4A\	4bb`\	.
4e 4c# 4A\	4ccc#`\	.
=3	=3	=3
4GG#/	(8eee\L	.
.	8ddd\J)	.
4d 4B 4G# 4E\	(8bb\L	.
.	8gg#\J)	.
4d 4B 4G# 4E\	4ee^^\	.
=4	=4	=4
4EE/	4r	.
4d 4G# 4E\	4bb`\	.
4d 4G# 4E\	4ccc#`\	.
!!LO:PB:g=original
=5	=5	=5
4BB/	2ddd\	.
4B 4G# 4E\	.	.
4B 4G# 4E\	4ddd^^\	.
=6	=6	=6
!	!LO:TUP:a:problem:klamra łukowa	!
4GG#/	12ddd\L	.
.	12eee\	.
.	12ddd\J	.
4d 4G# 4E\	4ccc#`\	.
4d 4G# 4E\	4ddd`\	.
=7	=7	=7
4AA/	(8fff#\L	.
.	8eee\	.
4c# 4A 4E\	8ccc#\	.
.	8aa\J)	.
4c# 4A 4E\	4ee^^\	.
=8	=8	=8
4AA/	4r	.
4c# 4A 4E\	4ccc#`\	.
4c# 4A 4E\	4eee`\	.
=9	=9	=9
4C#/	2aaa 2aa\	>
4c# 4A 4E\	.	.
4c# 4A 4E\	4eee^^\	]
=10	=10	=10
!	!LO:TUP:a:problem:klamra łukowa	!
4C#/	12eee\L	.
.	12fff#\	.
.	12eee\J	.
4c# 4A 4E\	4ddd#X`\	.
4c# 4A 4E\	4eee`\	.
!!LO:LB:g=original
=11	=11	=11
4D\	(8ggg#\L	.
.	8fff#\	.
4d 4B 4F#\	8ddd\	.
.	8bb\J)	.
4d 4B 4F#\	4ff#^^\	.
=12	=12	=12
4D\	4r	.
4d 4B 4F#\	4bb`\	.
4d 4B 4F#\	4ddd\`	.
=13	=13	=13
4AA/	(8fff#\L	.
.	8eee\	.
4c# 4A 4E\	8ccc#\	.
.	8aa\J)	.
4c# 4A 4E\	4ee^^\	.
=14	=14	=14
4GG#/	(8eee\L	.
.	8ddd\	.
4d 4B 4G# 4E\	8bb\	.
.	8gg#\J)	.
4d 4B 4G# 4E\	4ee^^\	.
=15	=15	=15
!	!LO:TUP:a:problem:klamra łukowa	!
4EE/	24aa\LL	.
.	24bb\	.
.	24aa\J	.
.	8gg#\J	.
4d 4B 4E\	(8bb\L	.
.	8ddd\J)	.
4d 4B 4E\	(8eee\L	.
.	8ggg#\J)	.
=16	=16	=16
4c# 4A 4E\	2aaa^^\	.
4AA/	.	.
4r	4r	.
!!LO:LB:g=original
=17:|!|:	=17:|!|:	=17:|!|:
*>B	*>B	*>B
!	!LO:TX:b:i:t=con espressione	!
4GG#/	4.eee 4.gg# 4.dd\	.
4d 4B 4G# 4E\	.	.
.	8eee 8gg# 8dd\	.
4d 4B 4G# 4E\	4eee 4gg# 4ee\	.
=18	=18	=18
4EE/	4eee 4gg# 4dd\	.
4d 4G# 4E\	4.fff#: 4.gg#: 4.dd:\	>
4d 4G# 4E\	.	.
.	8eee 8gg# 8dd\	]
=19	=19	=19
4AA/	4.eee 4.gg# 4.dd\	>
4c# 4A 4E\	.	.
.	8ccc# 8ee 8cc#\	]
4c# 4A 4E\	4ccc# 4ee 4cc#^^\	.
=20	=20	=20
4AA/	4ccc# 4ee 4cc#\	.
4c# 4A 4E\	4.ggg# 4.ccc# 4.aa 4.ee\	>
4c# 4A 4E\	.	.
.	8ccc# 8ee 8cc#\	]
=21	=21	=21
4EE/	4.ccc# 4.ee 4.cc#\	.
4d 4G# 4E\	.	.
.	8bb 8dd 8b\	.
4d 4G# 4E\	4bb 4dd 4b\	.
=22	=22	=22
4GG#/	4bb 4dd 4b\	.
4d 4G# 4E\	4.ddd 4.ff# 4.dd\	.
4d 4G# 4E\	.	.
.	8bb 8dd 8b\	.
!!LO:LB:g=original
=23	=23	=23
4AA/	4.bb 4.dd 4.b\	.
4c# 4A 4E\	.	.
.	8aa 8cc# 8a\	.
4c# 4A 4E\	4aa 4cc# 4a\	.
=24	=24	=24
4C#/	4aa 4cc# 4a\	.
4e 4c# 4A\	4.bb 4.dd 4.b\	<
4e 4c# 4A\	.	.
.	8ccc# 8ee 8cc#\	[
=25	=25	=25
4GG#/	4.eee 4.gg# 4.ee\	.
4d 4B 4G# 4E\	.	.
.	8eee 8gg# 8ee\	.
4d 4G# 4E\	4eee 4gg# 4ee\	.
=26	=26	=26
4EE/	4eee 4gg# 4ee\	<
4d 4G# 4E\	4eee#X 4gg# 4ee#X\	.
4d 4G# 4E\	4fff# 4aa 4ff#\	[
=27	=27	=27
4D/	2ggg# 2bb 2gg#\	>
4d 4F#\	.	.
4d 4F#\	4fff# 4aa 4ff#\	]
=28	=28	=28
4BB/	4ddd 4ff# 4dd\	>
4d 4B 4F#\	4.ccc# 4.ee 4.cc#\	.
4d 4B 4F#\	.	.
.	8bb 8dd 8b\	]
!!LO:LB:g=original
=29	=29	=29
4AA/	2bb 2dd 2b\	.
4c# 4A 4E\	.	.
4c# 4A 4E\	4aa 4cc# 4a\	.
=30	=30	=30
4EE/	4gg# 4b 4g#\	.
4d 4G# 4E\	4.ccc# 4.ee 4.cc#\	>
4d 4G# 4E\	.	.
.	8bb 8dd 8b\	]
=31	=31	=31
4AA/	4bb 4dd 4b\	.
4c# 4A 4E\	4.aa 4.cc# 4.a\	.
4c# 4A 4E\	.	.
.	8gg# 8b 8g#\	.
=32	=32	=32
!!LO:TX:a:t=1a
*>B1	*>B1	*>B1
4AA/	8aaL 8cc# 8a\	<
.	8bb 8b\	.
4c# 4A 4E\	8ccc# 8cc#\	.
.	8ddd 8dd\	.
4r	8ddd#X 8dd#X\	.
.	8eeeJ 8ee\	[[
=33:|!	=33:|!	=33:|!
!!LO:TX:a:t=2a
*>B2	*>B2	*>B2
2c# 2A 2E\	2aa 2cc# 2a\	.
4AA/	4r	.
==	==	==
*-	*-	*-
!!!system-decoration: {(*)}
!!!ENC: Berenika Jozajtis
!!!END: 2023-07-10
!!!ENC: Marta Lawrence
!!!END: 2023-07-17
!!!YEC: Copyright 2022 Narodowy Instytut Fryderyka Chopina (https://polishscores.org)
!!!YEM: License CC-BY-4.0 (https://creativecommons.org/licenses/by/4.0)
